X: 1
T: P\`ere Doiron
R: reel
S: Fiddle Hell Online 2022-3-26 handout for Fiddle Hell jam session
B: the Portland Collection 2 p.156
Z: 2022 John Chambers <jc:trillian.mit.edu>
M: C|
L: 1/8
K: Amix
|: z2 |: "A"ea-ag aged |[1,3 cdef "G"gedg :|[2,4 "G"cAGB "A"A2 :|
|: AB |: "A"cAEA  cAeA |[1,3 "G"BAGA BcdB :|[2,4 "G"BAGB "A"A2 :|
